X:1
T:Booth Shot Lincoln Trad (Mm-mm
L:1/8
M:4/4
I:linebreak $
K:A
V:1 treble nm="- ﬁbﬁn" snm="- ﬁbﬁn"
V:1
|:"A" EC EF E3 E3/2 | | A2 B2 A2 AA |"A" ABcB AcBA |"D" F3 G3/2 F4 |$ E2 C2 E2 E | F A2 B A4 | %7
 e2 c2 B2 AcBG :|1 A4 A2 AB ||$ c e2 f e3 e | f a2 b a4 | e2 cB AcBA | F4 F2 AB |$ c e2 f e3 e | %14
 f2 a2 b a4 | e2 cB AcBG |$ c e2 f e3 e | | a2 b a4 | e2 cB AcBA | F4 F4 |$ A4 E2 C2 | %22
 e2 cB3/2 AcBG | A4 A4 |] %24
